X:35
T:Out and in upon occasion
M:6/8
L:1/8
B:Thompson's Compleat Collection of 200 Favourite Country Dances, vol. 2 (London, 1765)
Z:Transcribed and edited by Flynn Titford-Mock, 2007
Z:abc's:AK/Fiddler's Companion
K:G
G2D B2G | d2B g3 | ded dcB | ABc BAG | G2D B2G | d2B g3 | fag fed | Ad^c d3 :|
|: d2B d2B | c2A c2A | Bcd dcB | AGA A2D | G2D B2G | d2B (g3 | g)fe d2c | BcA G3 :|

